X:620
T: Beer Bally Dancing
L: 1/8
M: 4/4
R: reel
K: Dmaj
|:"F#" ~F2 cF GFcF | ~F2 cF GF E/F/G | ~F2 cF GFcF | ^ABcd edcG |
~F2 cF GFcF | ~F2 cF GF E/F/G |1 ~F2 cF GFcg- | gfed cB^AG :|2 ~F2 cF GFc^A- | ABcd edce ||
"bm" d3 d- dc B2- | Bcde dcBd | "F#" cFFE F2 cF | FEFG ^ABce 
|1 "bm" d3 c dcBc | dfec dcBd |"F#" cFFE F2 cF | FEFG TF4 :|
|2 "bm" d3 c de f2- | fgfe dcBd | "F#" cFFE F2 cF | FEFG TF4 ||
"em" [Bg]8- | [Bg]2 [c^a]4 [db]2 | [ec']8- | [ec']2 [db]4 [c^a]2 | "F#" [Bg]6 [^Af]2- | [Af]8- | [Af]8 | z8 |
"em" [Bg]8- | [Bg]2 [c^a]4 [db]2 | [ec']8- |  [ec']2 [gd']6 |$"F#" [fc'f']8- | [fc'f']8 |"^BREAK!" z8 | z8 |]
|"var"~F2 cF GBcg- | gfed cB^AG
|"var"~F2 cF zFcg- | gfed cB^AG

